icons/svgs/tree-outline.svg

<svg width="24" height="24" viewBox="0 0 24 24" fill="none" xmlns="http://www.w3.org/2000/svg">
<path d="M12.6643 2.3125L18.2893 8.5625C18.5627 8.83594 18.6018 9.26562 18.4455 9.57812C18.3283 9.92969 17.9768 10.125 17.6252 10.125H17.1565L19.5783 12.9766C19.8127 13.25 19.8518 13.6406 19.6955 13.9531C19.5393 14.3047 19.2268 14.5 18.8752 14.5H17.9377L20.5549 18.0156C20.7502 18.2891 20.7893 18.6797 20.633 18.9922C20.4768 19.3047 20.1643 19.5 19.8127 19.5H14.5002H12.9377V21.0625C12.9377 21.6094 12.508 22 12.0002 22C11.4533 22 11.0627 21.6094 11.0627 21.0625V19.5H9.50022H4.18772C3.7971 19.5 3.4846 19.3047 3.32835 18.9922C3.1721 18.6797 3.21116 18.2891 3.40647 18.0156L6.06272 14.5H5.12522C4.7346 14.5 4.4221 14.3047 4.26585 13.9531C4.1096 13.6406 4.14866 13.25 4.38303 12.9766L6.80491 10.125H6.37522C5.9846 10.125 5.63303 9.92969 5.51585 9.57812C5.3596 9.26562 5.39866 8.83594 5.6721 8.5625L11.2971 2.3125C11.4533 2.11719 11.7268 2 12.0002 2C12.2346 2 12.508 2.11719 12.6643 2.3125ZM12.9377 17.625H14.5002H17.9377L15.2815 14.1484C15.0862 13.875 15.0471 13.4844 15.2033 13.1719C15.3596 12.8594 15.6721 12.625 16.0627 12.625H16.8049L14.383 9.8125C14.1487 9.53906 14.1096 9.14844 14.2658 8.79688C14.4221 8.48438 14.7346 8.25 15.1252 8.25H15.5158L12.0002 4.34375L8.44553 8.25H8.87522C9.22678 8.25 9.53928 8.48438 9.69553 8.79688C9.85178 9.14844 9.81272 9.53906 9.57835 9.8125L7.15647 12.625H7.93772C8.28928 12.625 8.60178 12.8594 8.75803 13.1719C8.91428 13.4844 8.87522 13.875 8.67991 14.1484L6.06272 17.625H9.50022H11.0627V10.4375C11.0627 9.92969 11.4533 9.5 12.0002 9.5C12.508 9.5 12.9377 9.92969 12.9377 10.4375V17.625Z" fill="black"/>
</svg>

<svg xmlns="http://www.w3.org/2000/svg" width="24" height="24" fill="currentColor" class="icon-tree-outline" viewBox="0 0 24 24">
  <mask id="a" width="18" height="20" x="3" y="2" maskUnits="userSpaceOnUse" style="mask-type:alpha">
    <path d="m12.664 2.313 5.625 6.25a.9.9 0 0 1 .156 1.015c-.117.352-.468.547-.82.547h-.468l2.421 2.852a.9.9 0 0 1 .117.976.88.88 0 0 1-.82.547h-.937l2.617 3.516a.97.97 0 0 1 .078.976.91.91 0 0 1-.82.508h-6.875v1.563c0 .546-.43.937-.938.937-.547 0-.937-.39-.937-.937V19.5H4.188c-.39 0-.703-.195-.86-.508a.97.97 0 0 1 .078-.976L6.063 14.5h-.938c-.39 0-.703-.195-.86-.547a.9.9 0 0 1 .118-.976l2.422-2.852h-.43c-.39 0-.742-.195-.86-.547a.9.9 0 0 1 .157-1.015l5.625-6.25c.156-.196.43-.313.703-.313a.9.9 0 0 1 .664.313m.274 15.312h5l-2.656-3.477a.97.97 0 0 1-.079-.976.96.96 0 0 1 .86-.547h.742l-2.422-2.812c-.234-.274-.273-.665-.117-1.016a.96.96 0 0 1 .86-.547h.39L12 4.344 8.446 8.25h.43c.35 0 .663.234.82.547.156.351.117.742-.118 1.015l-2.422 2.813h.782c.351 0 .664.234.82.547a.97.97 0 0 1-.078.976l-2.617 3.477h5v-7.187c0-.508.39-.938.937-.938a.95.95 0 0 1 .938.938z"/>
  </mask>
  <g mask="url(#a)">
    <path d="M0 0h24v24H0z"/>
  </g>
</svg>
